X:2979
T:Orjan laulu
C:anon.
O:Sweden/Finland
A:Tornedalen
N:After W\"ain\oe Ruoyyinkoski
Z:Transcribed by Frank Nordberg - http://www.musicaviva.com
F:http://abc.musicaviva.com/tunes/sweden/orjan-laulu.abc
M:3/4
L:1/4
K:Cm
CEF|GFD|EG>E|DCG|
w:Or-ja-na syn-nyin ja or-ja-na kas-voin, ja
Gcd|cB>G|BG2-|Gzz|
w:rik-kai-den or-ja m\"a o-len,
Gcd|cBG|FB>c|BGE|
w:or-ja-na nou-sen ja or-ja-na kaa-dun
CEF|GE>C|DC2-|Czz|]
w:ja or-juu-den pol-ku-ja kul-jen.
W:
W:Orjana synnyin ja orjana kasvoin,
W:ja rikkaiden orja m\"a olen,
W:orjana nousen ja orjana kaadun
W:ja orjuuden polkuja kuljen.
W:
W:
W:  From Musica Viva - http://www.musicaviva.com
W:  the Internet center for free sheet music downloads.



